X:71
%%etbk:tnset id:255,pos:3,rep:3x,ant:
%%etbk:tnset id:24,pos:3,rep:3x,ant:
%%etbk:wsite http://www.thesession.org/tunes/display/192
%%etbk:skill ?
%%etbk:pldat 2013-11-18T18:10,2013-05-06T17:59
T: Tommy Peoples'
Z: Piano Box Version by Martin Fleischmann
H: Created 2013-02-19 /  Last Modified 2013-02-19
M: 4/4
L: 1/8
R: reel
K: Bmin
|: "bm"!2!B!1!B!2!Bc !4!dB!1!A!2!F | !5!B2!2!B!3!c !1!d!3!fe!1!d | !2!B{d}!2!B!2!Bc !4!dcdB | "f#m"!1!A!2!B!1!de !3!fde!1!d:|
|: "D"!1!d!2!f!4!af !5!bfaf | !1!df!4!a!2!f "A"!4!g!4!gfg | "D"!5!afge !1!d3!2!B | "A"!1!A!2!B!1!de !3!fde!1!d:|
